dist/img/ic.svg

<svg width="120" height="57" viewBox="0 0 120 57" fill="none" xmlns="http://www.w3.org/2000/svg">
<path fill-rule="evenodd" clip-rule="evenodd" d="M118.659 0.988039L63.2459 14.4723C63.0677 14.5161 62.8819 14.5136 62.7049 14.4648L12.6692 0.881607C12.0679 0.718829 11.4541 1.09197 11.3248 1.70051L0.0243387 54.7311C-0.141347 55.5099 0.565327 56.1948 1.34104 56.0058L56.7553 42.5215C56.9323 42.4789 57.1181 42.4802 57.2951 42.5277L107.357 56.0058C107.957 56.1673 108.571 55.7929 108.7 55.1869L119.976 2.26397C120.141 1.48514 119.435 0.800218 118.659 0.989291V0.988039Z" fill="white"/>
</svg>

<svg width="120" height="57" viewBox="0 0 120 57" fill="none" xmlns="http://www.w3.org/2000/svg"><path fill-rule="evenodd" clip-rule="evenodd" d="M118.659.988L63.246 14.472a1.071 1.071 0 01-.541-.007L12.669.882a1.083 1.083 0 00-1.344.819L.025 54.73a1.082 1.082 0 001.316 1.275l55.414-13.484c.177-.043.363-.042.54.006l50.062 13.478c.6.161 1.214-.213 1.343-.82l11.276-52.922a1.083 1.083 0 00-1.317-1.275z" fill="#fff"/></svg>.5277L107.357 56.0058C107.957 56.1673 108.571 55.7929 108.7 55.1869L119.976 2.26397C120.141 1.48514 119.435 0.800218 118.659 0.989291V0.988039Z" fill="white"/>
</svg>
